src/icons/docs-guide.svg

<svg xmlns="http://www.w3.org/2000/svg" viewBox="0 0 64 64"><path d="M50 19.5H38V23.5H50V19.5Z"/><path d="M38 27.5H50V31.5H38V27.5Z"/><path d="M50 35.5H38V39.5H50V35.5Z"/><path fill-rule="evenodd" clip-rule="evenodd" d="M8 9L6 11V53L8 55H24C26.2208 55 28.1599 56.2066 29.1973 58H34.8027C35.8401 56.2066 37.7792 55 40 55H56L58 53V11L56 9H40C36.7288 9 33.8245 10.5707 32 12.999C30.1755 10.5707 27.2712 9 24 9H8ZM30 19C30 15.6863 27.3137 13 24 13H10V51H24C26.2512 51 28.3287 51.7439 30 52.9993V19ZM34 52.9993C35.6713 51.7439 37.7488 51 40 51H54V13H40C36.6863 13 34 15.6863 34 19V52.9993Z" fill="black"/></svg>

<svg xmlns="http://www.w3.org/2000/svg" viewBox="0 0 64 64"><path d="M50 19.5H38v4h12zm-12 8h12v4H38zm12 8H38v4h12z"/><path fill-rule="evenodd" d="m8 9-2 2v42l2 2h16c2.22 0 4.16 1.207 5.197 3h5.606A6 6 0 0 1 40 55h16l2-2V11l-2-2H40a9.99 9.99 0 0 0-8 3.999A9.99 9.99 0 0 0 24 9zm22 10a6 6 0 0 0-6-6H10v38h14c2.251 0 4.329.744 6 2zm4 34a9.96 9.96 0 0 1 6-2h14V13H40a6 6 0 0 0-6 6z" clip-rule="evenodd"/></svg>
